assets/Swan/Flat/swan_flat.svg

<svg width="32" height="33" viewBox="0 0 32 33" fill="none" xmlns="http://www.w3.org/2000/svg">
<path d="M29.7091 12.9179C28.9151 12.5879 28.0081 12.7629 27.3971 13.3659C26.3311 14.4209 24.7681 15.0009 23.0001 15.0009H16.0001C14.2191 15.0009 12.4671 15.6819 10.9711 16.9379L12.4891 9.93092C13.0961 7.14292 11.5101 4.30892 8.80012 3.33992C7.30612 2.80392 5.63012 2.90792 4.19612 3.62792C2.77412 4.35492 1.70712 5.64592 1.26812 7.17492C1.10312 7.76392 1.01412 8.37292 1.00212 8.98292C0.997122 9.25392 1.10312 9.51592 1.29412 9.70892L3.29312 11.7089C3.48112 11.8969 3.73512 12.0019 4.00112 12.0019H5.00112C5.38712 12.0019 5.73812 11.7799 5.90412 11.4309L6.13312 10.9499L3.82312 21.5559C3.32412 23.8549 3.88712 26.2259 5.36812 28.0629C6.87312 29.9299 9.12312 31.0009 11.5391 31.0009H18.7491C24.5181 31.0009 29.4311 27.1189 30.6981 21.5619C30.7861 21.1799 30.6411 20.7909 30.3441 20.5549L30.8901 19.4759C30.9571 19.3419 30.9941 19.1949 30.9971 19.0449L30.9981 14.8479C31.0001 14.0029 30.4931 13.2449 29.7091 12.9179Z" fill="#9B9B9B"/>
<path d="M20.25 26.0018H15.5C15.22 26.0018 15 25.7888 15 25.5168C15 25.2458 15.22 25.0318 15.5 25.0318H20.25C24.559 25.0318 28.289 22.5598 29.999 19.0028C29.999 18.9618 30 18.9218 30 18.8808V14.8478C30 13.8688 28.8 13.3848 28.1 14.0768C26.76 15.4008 24.9 16.0008 23 16.0008H16C14 16.0008 12.22 16.9728 10.86 18.4158L10.01 19.3148C9.79997 19.5328 9.42997 19.3448 9.48997 19.0478L11.51 9.71685C12.01 7.42385 10.7 5.08085 8.45997 4.27985C7.21997 3.83485 5.82997 3.92385 4.64997 4.51685C3.46998 5.12185 2.58998 6.18985 2.22998 7.44485C2.08698 7.95385 2.01098 8.47785 2.00098 9.00185L3.99998 10.0018L5.94997 9.00185L6.08997 8.51285C6.16997 8.23585 6.36997 8.09785 6.47997 8.03885C6.58997 7.97985 6.81997 7.90085 7.09997 7.99885C7.45997 8.12685 7.67997 8.51285 7.59997 8.88885L6.02997 16.1538L4.79997 21.7688C3.87998 26.0088 7.14997 30.0028 11.54 30.0028H18.75C24.107 30.0028 28.593 26.3038 29.724 21.3408C27.583 24.1588 24.131 26.0018 20.25 26.0018Z" fill="white"/>
<path d="M4.00004 8.50183C4.00004 8.77783 3.77604 9.00183 3.50004 9.00183C3.22404 9.00183 3.00004 8.77783 3.00004 8.50183C3.00004 8.22583 3.22404 8.00183 3.50004 8.00183C3.77604 8.00183 4.00004 8.22583 4.00004 8.50183ZM3.50004 9.00183H2.00104C1.99504 9.33583 2.01504 9.67083 2.06304 10.0018L4.00004 11.0018L5.66404 10.0018L5.95004 9.00183H3.50004Z" fill="#212121"/>
<path d="M5.66399 10.0018H2.06299C2.13999 10.5298 2.28599 11.0498 2.49999 11.5469L3.44999 13.7509C3.55999 13.9979 3.80999 14.1659 4.07999 14.1659C4.39999 14.1659 4.67999 13.9489 4.74999 13.6419L5.48999 10.6068L5.66399 10.0018Z" fill="#FF822D"/>
</svg>

<svg xmlns="http://www.w3.org/2000/svg" width="32" height="33" fill="none"><path fill="#9B9B9B" d="M29.71 12.918a2.123 2.123 0 0 0-2.313.448C26.331 14.42 24.768 15 23 15h-7c-1.78 0-3.533.68-5.029 1.937L12.49 9.93c.607-2.788-.979-5.622-3.689-6.591a5.877 5.877 0 0 0-4.604.288 5.796 5.796 0 0 0-2.928 3.547 7.238 7.238 0 0 0-.266 1.808c-.005.27.101.533.292.726l2 2a1 1 0 0 0 .707.293h1a1 1 0 0 0 .903-.571l.23-.481-2.31 10.606a7.714 7.714 0 0 0 1.544 6.507A7.885 7.885 0 0 0 11.54 31h7.21c5.77 0 10.682-3.882 11.95-9.44a1 1 0 0 0-.355-1.006l.546-1.08c.067-.133.104-.28.107-.43l.001-4.197a2.084 2.084 0 0 0-1.289-1.93Z"/><path fill="#fff" d="M20.25 26.002H15.5c-.28 0-.5-.213-.5-.485 0-.271.22-.485.5-.485h4.75c4.309 0 8.039-2.472 9.749-6.03l.001-.121v-4.033c0-.98-1.2-1.463-1.9-.771C26.76 15.4 24.9 16 23 16h-7c-2 0-3.78.972-5.14 2.415l-.85.899c-.21.218-.58.03-.52-.267l2.02-9.331c.5-2.293-.81-4.636-3.05-5.437a4.867 4.867 0 0 0-3.81.237 4.794 4.794 0 0 0-2.42 2.928 6.197 6.197 0 0 0-.229 1.557l1.999 1 1.95-1 .14-.49a.773.773 0 0 1 1.01-.514c.36.129.58.515.5.89l-1.57 7.266-1.23 5.615c-.92 4.24 2.35 8.234 6.74 8.234h7.21c5.357 0 9.843-3.7 10.974-8.662C27.583 24.159 24.131 26 20.25 26Z"/><path fill="#212121" d="M4 8.502a.5.5 0 1 1-1 0 .5.5 0 0 1 1 0Zm-.5.5H2.001c-.006.334.014.669.062 1l1.937 1 1.664-1 .286-1H3.5Z"/><path fill="#FF822D" d="M5.664 10.002H2.063c.077.528.223 1.048.437 1.545l.95 2.204a.7.7 0 0 0 .63.415c.32 0 .6-.217.67-.524l.74-3.035.174-.605Z"/></svg>
